X:1
T: Sweet Rosie Red
N:
C:Tune is "Soet roosie root"
S:
A:
O:
R:
M:4/4
K:C
I:speed 200
%W: A1
% voice 1 (1 lines, 17 notes)
K:C
M:4/4
L:1/16
G4 |c6 d2 c4 G4 |c6 d2 c4 c4 |d4 f4 e4 d4 |^c4 A4 A4 G4 |
%W: A2
% voice 1 (1 lines, 16 notes)
c6 d2 c4 G4 |c6 d2 c4 c4 |d4 f4 e4 d4 |^c4 A4 A4 f4 |
%W: B
% voice 1 (1 lines, 13 notes)
e8 d8 |^c4 A4 A4 f4 |e8 d8 |^c4 A4 A4 B2 c2 |
%W: C1
% voice 1 (1 lines, 15 notes)
d4 c4 B4 G4 |c4 B4 A4 G4 |A2 B2 c8 B4 |c12 B2 ^c2 |
%W: C2
% voice 1 (1 lines, 14 notes)
d4 c4 B4 G4 |c4 B4 A4 G4 |A2 B2 c8 B4 |c12 f4 |
%W: D
% voice 1 (1 lines, 20 notes)
e8 d8 |^c4 A4 A4 B2 c2 |d4 c4 B4 G4 |c4 B4 A4 G4 |A2 B2 c8 B4 |c12 ||
